X:1
T:Domine ad adiuvandum - Demantius
T:#
%%score [ 1 2 3 4 ]
L:1/8
Q:1/4=150
M:none
K:C
V:1 treble nm="S" snm="S"
V:2 treble nm="A" snm="A"
V:3 treble-8 nm="T" snm="T"
V:4 bass nm="B" snm="B"
V:1
"^Domine ad adiuvandum""^Christoph Demantius\n(1567-1643)" c6 c2 c2 c2 c4 | c2 c4 c2 c2 c2 B4 | %2
w: Do- mi- ne ad ad-|iu- van- dum me fe- sti-|
 c4 A4 A2 A2 d4 | c4 A4 c6 c2 | c2 f2 e3 e d2 c2 d4 | d8 z2 d4 d2 | ^c4 d2 d4 g2 ^f2 f2 | %7
w: na. Glo- ri- a Pa-|tri, et Fi- li-|o. et Spi- ri- tu- i san-|cto. Si- cut|e- rat in prin- ci- pi-|
 g6 e2 g2 e2 d4 | e4 z2 c4 f2 e2 e2 | d4 ^f8 g4 | e4 d4 d8 | d4 B8 c4 | f4 e4 d8 | %13
w: o, et nunc, et sem-|per, et in sae- cu-|la sae- cu-|lo- rum, A-|men, sae- cu-|lo- rum, A-|
 e4 z2 e2 (c2 d2 e2 d2 | %14
w: men. Al- le\- * * *|
[Q:1/4=149] c2[Q:1/4=148] B2[Q:1/4=147] A2[Q:1/4=145] G2[Q:1/4=144] A2[Q:1/4=143] B2[Q:1/4=141] c4) | %15
w: |
[Q:1/4=140] (g2[Q:1/4=139] f2[Q:1/4=138] e2[Q:1/4=136] d2[Q:1/4=135] c4[Q:1/4=133] f4- | %16
w: lu\- * * * * *|
[Q:1/4=131] f4[Q:1/4=129] e2[Q:1/4=128] d2)[Q:1/4=128] !fermata!e16 |] %17
w: * * * ia.|
V:2
 G6 G2 G2 G2 A4 | A2 A4 G2 F2 E2 D4 | E4 F4 F2 F2 F4 | A6 F2 G4 G4 | A2 c2 c3 c A2 G2 A4 | %5
w: Do- mi- ne ad ad-|iu- van- dum me fe- sti-|na. Glo- ri- a Pa-|tri, et Fi- li-|o. et Spi- ri- tu- i san-|
 B8 z2 A4 A2 | A4 A2 B4 B2 A2 A2 | B2 B2 c2 G2 G8 | G4 z2 F4 A2 A2 A2 | A4 d8 d4 | c4 B4 A8 | %11
w: cto. Si- cut|e- rat in prin- ci- pi-|o, et nunc, et sem-|per, et in sae- cu-|la sae- cu-|lo- rum, A-|
 B4 G8 G4 | A4 G4 G8 | G4 c4 A3 B c4 | z4 z2 B2 (c2 B2 A2 GF | E2 F2 G4) A8 | !fermata!G24 |] %17
w: men, sae- cu-|lo- rum, A-|men. Al- le- lu- ia.|Al- le\- * * * *|* * * lu-|ia.|
V:3
 e6 e2 e2 e2 e4 | e2 f4 g2 a2 g2 g4 | g4 c4 c2 c2 d4 | e4 f4 e6 e2 | f2 a2 g3 e ^f2 g4 f2 | %5
w: Do- mi- ne ad ad-|iu- van- dum me fe- sti-|na. Glo- ri- a Pa-|tri, et Fi- li-|o. et Spi- ri- tu- i san-|
 g8 z2 =f4 f2 | e4 ^f2 g4 G2 A2 A2 | G2 d2 c4 B2 (c3 B/A/ B2) | c4 z2 A4 d2 ^c2 c2 | d4 a8 g4 | %10
w: cto. Si- cut|e- rat in prin- ci- pi-|o, et nunc, et sem\- * * *|per, et in sae- cu-|la sae- cu-|
 g2 e2 (g6 ^fe !courtesy!^f4) | g4 d8 e4 | c2 A2 (c6 BA B4) | c4 g4 f4 g4 | %14
w: lo- rum, A\- * * *|men, sae- cu-|lo- rum, A\- * * *|men. Al- le- lu-|
 (a2 gf e2 d2 e4) z2 c2 | (c6 B2 A4) c4 | !fermata!c24 |] %17
w: ia. * * * * * Al-|le\- * * lu-|ia.|
V:4
 C6 C2 C2 C2 A,4 | A,2 F,4 E,2 F,2 C,2 G,4 | C,4 F,4 F,2 F,2 _B,4 | A,4 D4 C6 C2 | %4
w: Do- mi- ne ad ad-|iu- van- dum me fe- sti-|na. Glo- ri- a Pa-|tri, et Fi- li-|
 F,2 F2 C3 C D2 E2 D4 | G,8 z2 D,4 D,2 | A,4 D,2 G,4 G,2 D,2 D,2 | G,4 C,4 E,3 F, G,4 | %8
w: o. et Spi- ri- tu- i san-|cto. Si- cut|e- rat in prin- ci- pi-|o, et nunc, et sem-|
 C,4 z2 F,4 D,2 A,2 A,2 | D,4 D8 B,4 | C4 G,4 D8 | G,4 G,8 E,4 | F,4 C,4 G,8 | C,8 z4 C4 | %14
w: per, et in sae- cu-|la sae- cu-|lo- rum, A-|men, sae- cu-|lo- rum, A-|men. Al-|
 (A,2 B,2 C2 B,2 A,2 G,2 F,2 E,D, | C,2 D,2 E,4) F,8 | C,24 |] %17
w: le\- * * * * * * * *|* * * lu-|ia.|

